icons/triangle-arrow-left.svg

<svg xmlns="http://www.w3.org/2000/svg" width="24" height="24" viewBox="0 0 24 24">
  <path d="M9.37135227,3.70432092 C10.1698214,2.25255887 11.9939942,1.72296031 13.4457562,2.52142944 C13.9442354,2.79559297 14.3544842,3.20584177 14.6286477,3.70432092 L14.6286477,3.70432092 L22.2461053,17.5542438 C23.0445744,19.0060058 22.5149759,20.8301786 21.0632138,21.6286477 C20.6202789,21.8722619 20.1229665,22 19.6174576,22 L19.6174576,22 L4.38254244,22 C2.72568819,22 1.38254244,20.6568542 1.38254244,19 C1.38254244,18.4944911 1.5102805,17.9971787 1.75389472,17.5542438 L1.75389472,17.5542438 Z M8.01101934,14.1489612 C8.01362808,14.165949 8.01670217,14.1833753 8.02024007,14.2007258 C8.0246398,14.2227461 8.02983363,14.2444365 8.03572097,14.2658396 C8.04009773,14.2814633 8.04472872,14.2968513 8.04973809,14.3121425 C8.05612249,14.3317977 8.06331574,14.3515792 8.07110396,14.3710585 C8.07819642,14.3887956 8.08567905,14.4060985 8.09367336,14.4232215 C8.10337664,14.4438914 8.11379392,14.4642939 8.12487577,14.484277 C8.13149883,14.4963944 8.13860692,14.5086131 8.14599545,14.5207088 C8.1617187,14.546275 8.17849009,14.5711307 8.19631351,14.5951593 L8.20970461,14.6128994 L8.20970461,14.6128994 C8.21507113,14.6196628 8.2173721,14.6225624 8.21968877,14.625449 L8.29289322,14.7071068 L11.2928932,17.7071068 C11.6834175,18.0976311 12.3165825,18.0976311 12.7071068,17.7071068 C13.0675907,17.3466228 13.0953203,16.7793918 12.7902954,16.3871006 L12.7071068,16.2928932 L11.415,15 L15,15 C15.5522847,15 16,14.5522847 16,14 C16,13.4871642 15.6139598,13.0644928 15.1166211,13.0067277 L15,13 L11.415,13 L12.7071068,11.7071068 C13.0976311,11.3165825 13.0976311,10.6834175 12.7071068,10.2928932 C12.3466228,9.93240926 11.7793918,9.90467972 11.3871006,10.2097046 L11.2928932,10.2928932 L8.29289322,13.2928932 L8.24220802,13.347434 L8.24220802,13.347434 L8.21954244,13.3745191 C8.21507508,13.3803405 8.21392855,13.3817936 8.21278596,13.3832499 L8.19633458,13.4046934 L8.19633458,13.4046934 C8.17849009,13.4288693 8.1617187,13.453725 8.14606743,13.4793398 C8.13860692,13.4913869 8.13149883,13.5036056 8.12467117,13.5159379 C8.11379392,13.5357061 8.10337664,13.5561086 8.09365378,13.5769009 C8.08567905,13.5939015 8.07819642,13.6112044 8.07122549,13.628664 C8.06331574,13.6484208 8.05612249,13.6682023 8.04954668,13.6882636 C8.04472872,13.7031487 8.04009773,13.7185367 8.03584514,13.734007 C8.02983363,13.7555635 8.0246398,13.7772539 8.02016515,13.7992059 C8.01670217,13.8166247 8.01362808,13.834051 8.0110178,13.8515331 C8.00811223,13.8705042 8.00576612,13.890153 8.00399798,13.909968 C8.00307004,13.9208131 8.00232561,13.9308872 8.0017331,13.9409686 L8.00018018,13.980824 L8,14 L8.00054244,14.0185191 L8.00254244,14.0585191 L8.00154244,14.0585191 L8.00254244,14.0745191 L8.01101934,14.1489612 L8.01101934,14.1489612 Z"/>
</svg>

<svg xmlns="http://www.w3.org/2000/svg" viewBox="0 0 24 24">
  <path d="M9.37 3.7a3 3 0 0 1 5.26 0l7.62 13.85A3 3 0 0 1 19.62 22H4.38a3 3 0 0 1-2.63-4.45zM8.01 14.15a1.08 1.08 0 0 0 .14.37l.05.08.01.01.01.02.07.08 3 3a1 1 0 0 0 1.5-1.32l-.08-.1L11.4 15H15a1 1 0 0 0 .12-2H11.4l1.3-1.3a1 1 0 0 0-1.32-1.49l-.1.08-3 3-.05.06-.02.02v.01l-.02.02a1.03 1.03 0 0 0-.2.54v.13l.01.08z"/>
</svg>
